assets/svg/icon_picinpic.svg

<svg width="24" height="24" viewBox="0 0 24 24" fill="none" xmlns="http://www.w3.org/2000/svg">
<g filter="url(#filter0_b_47787_203381)">
<path d="M11.9973 4.25C15.4842 4.25 17.1367 4.44473 18.3451 5.65313C19.5535 6.86154 19.7482 8.514 19.7482 12.0009C19.7482 15.4878 19.5535 17.1403 18.3451 18.3487C17.3332 19.3605 16.0484 19.7263 13.435 19.7482H13.4296C13.1056 19.7482 12.8417 19.4861 12.8381 19.1622C12.8363 18.8364 13.0983 18.5689 13.4241 18.5653C15.7099 18.5452 16.7399 18.2795 17.5079 17.5115C18.3378 16.6817 18.5653 15.4969 18.5653 12.0009C18.5653 8.5049 18.3378 7.32015 17.5079 6.49028C16.6781 5.66041 15.4933 5.43293 11.9973 5.43293C8.5013 5.43293 7.31655 5.66041 6.48668 6.49028C5.71869 7.25828 5.45298 8.28834 5.43297 10.5741C5.42933 10.8999 5.16544 11.1601 4.8415 11.1601H4.83604C4.51028 11.1583 4.2464 10.8908 4.25004 10.565C4.27188 7.94984 4.63949 6.66499 5.64953 5.65313C6.85976 4.44473 8.51222 4.25 11.9973 4.25Z" fill="white"/>
<path d="M15.2835 12.1124C15.2835 12.4255 15.0287 12.6802 14.7157 12.6802H11.8803C11.5673 12.6802 11.3125 12.4255 11.3125 12.1124V9.27704C11.3125 8.96402 11.5673 8.70924 11.8803 8.70924C12.1933 8.70924 12.4481 8.96402 12.4481 9.27704V10.7439L15.2598 7.93214C15.4819 7.71012 15.8404 7.71012 16.0624 7.93214C16.2844 8.15417 16.2844 8.51269 16.0624 8.73472L13.2507 11.5464H14.7175C15.0305 11.5464 15.2853 11.8012 15.2853 12.1143L15.2835 12.1124Z" fill="white"/>
<path fill-rule="evenodd" clip-rule="evenodd" d="M7.85251 12.874C7.17369 12.874 6.96986 12.874 6.52035 12.9341C6.04536 12.9978 5.61768 13.1379 5.27191 13.4819C4.92795 13.8258 4.78781 14.2553 4.72412 14.7303C4.66406 15.1798 4.66406 15.3818 4.66406 16.0625V16.1407C4.66406 16.8195 4.66406 17.0234 4.72412 17.4729C4.78781 17.9479 4.92795 18.3755 5.27191 18.7213C5.61586 19.0653 6.04536 19.2054 6.52035 19.2691C6.96986 19.3292 7.17187 19.3292 7.85251 19.3292H7.93076C8.60958 19.3292 8.81341 19.3292 9.26292 19.2691C9.73792 19.2054 10.1656 19.0653 10.5114 18.7213C10.8553 18.3774 10.9955 17.9479 11.0592 17.4729C11.1192 17.0234 11.1192 16.8214 11.1192 16.1407V16.0625C11.1192 15.3837 11.1192 15.1798 11.0592 14.7303C10.9955 14.2553 10.8553 13.8276 10.5114 13.4819C10.1674 13.1379 9.73792 12.9978 9.26292 12.9341C8.81341 12.874 8.6114 12.874 7.93076 12.874H7.85251ZM6.07448 14.2844C6.17275 14.1862 6.32198 14.1043 6.6714 14.0588C7.0372 14.0096 7.16277 14.0078 7.89073 14.0078C8.61868 14.0078 8.74608 14.0078 9.11005 14.0588C9.45947 14.1061 9.6087 14.1862 9.70698 14.2844C9.80525 14.3827 9.88715 14.5319 9.93264 14.8814C9.98178 15.2472 9.9836 15.3727 9.9836 16.1007C9.9836 16.8286 9.9836 16.956 9.93264 17.32C9.88533 17.6694 9.80525 17.8187 9.70698 17.9169C9.6087 18.0152 9.45947 18.0971 9.11005 18.1426C8.74426 18.1917 8.61868 18.1936 7.89073 18.1936C7.16277 18.1936 7.03538 18.1936 6.6714 18.1426C6.32198 18.0953 6.17275 18.0152 6.07448 17.9169C5.9762 17.8187 5.89431 17.6694 5.84881 17.32C5.79967 16.9542 5.79785 16.8286 5.79785 16.1007C5.79785 15.3727 5.79785 15.2453 5.84881 14.8814C5.89613 14.5319 5.9762 14.3827 6.07448 14.2844Z" fill="white"/>
</g>
<defs>
<filter id="filter0_b_47787_203381" x="-3.66667" y="-3.66667" width="31.3333" height="31.3333" filterUnits="userSpaceOnUse" color-interpolation-filters="sRGB">
<feFlood flood-opacity="0" result="BackgroundImageFix"/>
<feGaussianBlur in="BackgroundImageFix" stdDeviation="1.83333"/>
<feComposite in2="SourceAlpha" operator="in" result="effect1_backgroundBlur_47787_203381"/>
<feBlend mode="normal" in="SourceGraphic" in2="effect1_backgroundBlur_47787_203381" result="shape"/>
</filter>
</defs>
</svg>

<svg xmlns="http://www.w3.org/2000/svg" width="24" height="24" fill="none"><g fill="#fff" filter="url(#a)"><path d="M11.997 4.25c3.487 0 5.14.195 6.348 1.403 1.209 1.209 1.403 2.861 1.403 6.348s-.195 5.14-1.403 6.348c-1.012 1.011-2.297 1.377-4.91 1.4h-.005a.593.593 0 0 1-.006-1.184c2.286-.02 3.316-.286 4.084-1.053.83-.83 1.057-2.015 1.057-5.511s-.227-4.68-1.057-5.51-2.015-1.058-5.51-1.058c-3.497 0-4.681.227-5.511 1.057-.768.768-1.034 1.798-1.054 4.084a.59.59 0 0 1-.591.586h-.006a.59.59 0 0 1-.586-.595c.022-2.615.39-3.9 1.4-4.912C6.86 4.445 8.512 4.25 11.997 4.25"/><path d="M15.284 12.112a.57.57 0 0 1-.568.568H11.88a.57.57 0 0 1-.568-.568V9.277a.569.569 0 0 1 1.136 0v1.467l2.812-2.812a.567.567 0 1 1 .802.803l-2.811 2.811h1.467c.313 0 .567.255.567.568z"/><path fill-rule="evenodd" d="M7.853 12.874c-.68 0-.883 0-1.333.06-.475.064-.902.204-1.248.548-.344.344-.484.773-.548 1.248-.06.45-.06.652-.06 1.332v.079c0 .679 0 .882.06 1.332.064.475.204.902.548 1.248.344.344.773.484 1.248.548.45.06.652.06 1.333.06h.078c.679 0 .882 0 1.332-.06.475-.064.903-.204 1.248-.548.344-.344.485-.773.548-1.248.06-.45.06-.652.06-1.332v-.078c0-.68 0-.883-.06-1.333-.063-.475-.204-.902-.548-1.248-.344-.344-.773-.484-1.248-.548-.45-.06-.652-.06-1.332-.06zm-1.779 1.41c.099-.098.248-.18.597-.225.366-.05.492-.051 1.22-.051s.855 0 1.219.05c.35.048.499.128.597.226.098.099.18.248.226.597.049.366.05.492.05 1.22s0 .855-.05 1.219c-.048.35-.128.499-.226.597s-.248.18-.597.226c-.366.049-.491.05-1.22.05-.727 0-.855 0-1.219-.05-.349-.048-.498-.128-.597-.226s-.18-.248-.225-.597c-.05-.366-.051-.491-.051-1.22 0-.727 0-.855.05-1.219.048-.35.128-.498.226-.597" clip-rule="evenodd"/></g><defs><filter id="a" width="31.333" height="31.333" x="-3.667" y="-3.667" color-interpolation-filters="sRGB" filterUnits="userSpaceOnUse"><feFlood flood-opacity="0" result="BackgroundImageFix"/><feGaussianBlur in="BackgroundImageFix" stdDeviation="1.833"/><feComposite in2="SourceAlpha" operator="in" result="effect1_backgroundBlur_47787_203381"/><feBlend in="SourceGraphic" in2="effect1_backgroundBlur_47787_203381" result="shape"/></filter></defs></svg>
